Simply-Green-Circles/scalable/apps/h2-icon.svg

<?xml version="1.0" encoding="UTF-8" standalone="no"?>
<svg
   xmlns:dc="http://purl.org/dc/elements/1.1/"
   xmlns:cc="http://creativecommons.org/ns#"
   xmlns:rdf="http://www.w3.org/1999/02/22-rdf-syntax-ns#"
   xmlns:svg="http://www.w3.org/2000/svg"
   xmlns="http://www.w3.org/2000/svg"
   xmlns:sodipodi="http://sodipodi.sourceforge.net/DTD/sodipodi-0.dtd"
   xmlns:inkscape="http://www.inkscape.org/namespaces/inkscape"
   width="48"
   height="48"
   viewBox="0 0 12.7 12.7"
   version="1.1"
   id="svg4"
   sodipodi:docname="h2-icon.svg"
   inkscape:version="0.92.4 (5da689c313, 2019-01-14)">
  <metadata
     id="metadata10">
    <rdf:RDF>
      <cc:Work
         rdf:about="">
        <dc:format>image/svg+xml</dc:format>
        <dc:type
           rdf:resource="http://purl.org/dc/dcmitype/StillImage" />
        <dc:title></dc:title>
      </cc:Work>
    </rdf:RDF>
  </metadata>
  <defs
     id="defs8" />
  <sodipodi:namedview
     pagecolor="#ffffff"
     bordercolor="#666666"
     borderopacity="1"
     objecttolerance="10"
     gridtolerance="10"
     guidetolerance="10"
     inkscape:pageopacity="0"
     inkscape:pageshadow="2"
     inkscape:window-width="1087"
     inkscape:window-height="480"
     id="namedview6"
     showgrid="false"
     inkscape:zoom="4.9166667"
     inkscape:cx="2.1355932"
     inkscape:cy="24"
     inkscape:window-x="0"
     inkscape:window-y="25"
     inkscape:window-maximized="0"
     inkscape:current-layer="svg4" />
  <path
     d="m 6.344,0.073 a 6.29,6.29 0 0 0 -6.29,6.29 6.29,6.29 0 0 0 6.29,6.288 6.29,6.29 0 0 0 6.29,-6.289 6.29,6.29 0 0 0 -6.29,-6.29 z M 6.326,1.009 A 5.407,5.407 0 0 1 11.733,6.416 5.407,5.407 0 0 1 6.326,11.823 5.407,5.407 0 0 1 0.92,6.416 5.407,5.407 0 0 1 6.326,1.01 Z M 3.013,3.325 c -0.558,0 -1.008,0.18 -1.008,0.403 v 5.244 c 0,0.223 0.45,0.403 1.008,0.403 0.559,0 1.008,-0.18 1.008,-0.403 V 7.597 h 1.376 v 1.32 c 0,0.243 0.707,0.44 1.586,0.44 H 9.11 c 0.878,0 1.585,-0.197 1.585,-0.44 V 3.765 c 0,-0.244 -0.707,-0.44 -1.585,-0.44 H 6.983 c -0.88,0 -1.586,0.196 -1.586,0.44 v 1.87 H 4.02 V 3.728 C 4.02,3.505 3.57,3.325 3.012,3.325 Z m 3.135,0.733 h 3.869 V 7.021 H 7.395 v 0.616 h 2.622 V 8.81 H 6.148 V 5.848 H 8.843 V 5.232 H 6.148 Z"
     id="path2"
     inkscape:connector-curvature="0"
     style="fill:#2ca02c" />
</svg>

<svg xmlns="http://www.w3.org/2000/svg" width="48" height="48" viewBox="0 0 12.7 12.7"><path fill="#2ca02c" d="M6.34.07a6.29 6.29 0 0 0-6.29 6.3 6.29 6.29 0 0 0 6.3 6.28 6.29 6.29 0 0 0 6.28-6.29A6.29 6.29 0 0 0 6.34.07zm-.01.94a5.4 5.4 0 0 1 5.4 5.4 5.4 5.4 0 0 1-5.4 5.41 5.4 5.4 0 0 1-5.41-5.4A5.4 5.4 0 0 1 6.32 1zM3 3.32c-.55 0-1 .19-1 .4v5.25c0 .22.45.4 1 .4.56 0 1.01-.17 1.01-.4V7.6H5.4v1.32c0 .24.7.44 1.58.44h2.13c.88 0 1.58-.2 1.58-.44V3.77c0-.25-.7-.44-1.58-.44H6.98c-.88 0-1.58.2-1.58.44v1.87H4.02V3.73c0-.22-.45-.4-1-.4zm3.14.74h3.87v2.96H7.39v.62h2.63V8.8H6.15V5.85h2.7v-.62h-2.7V4.06z"/></svg>
